icons/svg/32x32/comment/outline.svg

<svg width="32" height="32" fill="none" xmlns="http://www.w3.org/2000/svg">
  <path fill-rule="evenodd" clip-rule="evenodd" d="M24 14a2 2 0 11-4.001-.001A2 2 0 0124 14zm-6 0a2 2 0 11-4.001-.001A2 2 0 0118 14zm-6 0a2 2 0 11-4.001-.001A2 2 0 0112 14zm13.414 7.019C23.597 22.37 20.605 23 16 23c-.579 0-1.14-.011-1.665-.03l-.56-.022-.489.272L9 25.601v-3.332l-1.163-.536C5.939 20.859 4 19.258 4 14c0-4.566 1.476-6.192 2.586-7.019C8.403 5.63 11.395 5 16 5c4.605 0 7.597.63 9.414 1.981C26.524 7.808 28 9.434 28 14c0 4.566-1.476 6.192-2.586 7.019zM16 3C6.378 3 2 5.673 2 14c0 5.032 1.611 7.989 5 9.55V29l7.258-4.032c.56.021 1.14.032 1.742.032 9.622 0 14-2.673 14-11S25.622 3 16 3z" fill="#000"/>
</svg>

<svg xmlns="http://www.w3.org/2000/svg" width="32" height="32" viewBox="0 0 32 32">
  <path fill-rule="evenodd" d="M24,14 C24,15.104 23.104,16 22,16 C20.896,16 20,15.104 20,14 C20,12.896 20.896,12 22,12 C23.104,12 24,12.896 24,14 M18,14 C18,15.104 17.104,16 16,16 C14.896,16 14,15.104 14,14 C14,12.896 14.896,12 16,12 C17.104,12 18,12.896 18,14 M12,14 C12,15.104 11.104,16 10,16 C8.896,16 8,15.104 8,14 C8,12.896 8.896,12 10,12 C11.104,12 12,12.896 12,14 M25.414,21.019 C23.597,22.37 20.605,23 16,23 C15.421,23 14.86,22.989 14.335,22.97 L13.775,22.948 L13.286,23.22 L9,25.601 L9,23.55 L9,22.269 L7.837,21.733 C5.939,20.859 4,19.258 4,14 C4,9.434 5.476,7.808 6.586,6.981 C8.403,5.63 11.395,5 16,5 C20.605,5 23.597,5.63 25.414,6.981 C26.524,7.808 28,9.434 28,14 C28,18.566 26.524,20.192 25.414,21.019 M16,3 C6.378,3 2,5.673 2,14 C2,19.032 3.611,21.989 7,23.55 L7,29 L14.258,24.968 C14.818,24.989 15.398,25 16,25 C25.622,25 30,22.327 30,14 C30,5.673 25.622,3 16,3"/>
</svg>
